X: 20701
M: 2/4
L: 1/16
K: Eb
V: 1 staves=3
|:\
EEE2 EEE2 | GEGB eBGE | B,B,B,2 B,B,B,2 | DB,DF BAGF |\
EEE2 EEE2 | GEGB eBGF | Egfe dcB=A | B2B2 B4 :|
|:\
V: 2
|:\
|:\
V: 3 clef=bass middle=d
|:\
eee2 eee2 | z8 | BBB2 BBB2 | z8 |\
eee2 eee2 | z8 | e4 e2f2 | B2B2 B4 :|
|:\
eee2 eee2 | G4 A4 | f4 a4 | e4 e4 |\
e4 e4 | d2d2 c2c2 | e2g2 a2b2 | e2e2 e4 :|


